X:1
T: Bessy Murphy
C:
R:Jig
Q:180
K:G
M:6/8
L:1/16
AG|F4G2 A2B2c2|d2e2d2 c2A2G2|F2G2A2 c2A2G2|F2G2A2 A4G2|F4G2 A2B2c2|d2e2d2 c2A2G2|F2D2F2 G2A2G2|F2D2F2 G4Bc|
F4G2 A2B2c2|d2e2d2 c2A2G2|F2G2A2 c2A2G2|F2G2A2 A4G2|F4G2 A2B2c2|d2e2d2 c2A2G2|F2D2F2 G2A2G2|F2D2F2 G4g2|
f2e2d2 c2d2e2|f2e2d2 c2A2G2|F2G2A2 c2A2G2|F2G2A2 A4g2|f2e2d2 c2d2e2|f2e2d2 c2A2G2|F2D2F2 G2A2G2|F2D2F2 G4g2|
f2e2d2 c2d2e2|f2e2d2 c2A2G2|F2G2A2 c2A2G2|F2G2A2 A4g2|f2e2d2 c2d2e2|f2e2d2 c2A2G2|F2D2F2 G2A2G2|F2D2F2 G4||
